portfolio/src/asset/picture_source/project_icon/Software_Tool/Frontend/uikit.svg

<svg xmlns="http://www.w3.org/2000/svg" width="48" height="48" fill="#0080FE" viewBox="0 0 30 30"><path d="m22.2 6.7-4.3 2.5 5.1 2.9v7.8L16 24l-7-4.1v-5.5L5 12v10.5L16 29l11-6.5v-13zm-2-1.2L16 3l-4.2 2.5L16 8z"/></svg>

<svg xmlns="http://www.w3.org/2000/svg"  viewBox="0 0 30 30" width="48px" height="48px" fill="#0080FE"><path d="M22.2 6.7L17.9 9.2 23 12.1 23 19.9 16 24 9 19.9 9 14.4 5 12 5 22.5 16 29 27 22.5 27 9.5zM20.2 5.5L16 3 11.8 5.5 16 8z"/></svg>
